src/assets/media/svg/sprite/previous.svg

<svg width="24" height="24" viewBox="0 0 24 24"  xmlns="http://www.w3.org/2000/svg">
<path d="M15.75 8.92499L23.25 3.82499V20.175L15.75 15.075V20.175L3.75 12V11.9625L15.75 3.82499V8.92499Z" />
<path d="M3.75 3V21H0.75V3H3.75Z" />
</svg>

<svg xmlns="http://www.w3.org/2000/svg" width="24" height="24"><path d="m15.75 8.925 7.5-5.1v16.35l-7.5-5.1v5.1L3.75 12v-.037l12-8.138zM3.75 3v18h-3V3z"/></svg>
